assets/Woman in lotus position/Medium/Flat/woman_in_lotus_position_flat_medium.svg

<svg width="32" height="32" viewBox="0 0 32 32" fill="none" xmlns="http://www.w3.org/2000/svg">
<path d="M10 17C10 13.6863 12.6863 11 16 11C19.3137 11 22 13.6863 22 17V17.6475C22 18 22.1576 18.1946 22.25 18.475C22.5542 19.4209 23.6701 20.3505 24.6832 21.1944C25.0356 21.488 25.3757 21.7712 25.6647 22.0412L26.5747 21.8918C26.8247 21.8519 27.0547 22.0113 27.0947 22.2603C27.1347 22.5094 26.9747 22.7385 26.7247 22.7783L26.5547 22.8082C26.6347 22.9078 26.6947 23.0174 26.7447 23.137C26.9847 23.2764 27.2647 23.3362 27.5447 23.3063C27.7547 23.2864 27.9547 23.4159 27.9947 23.6251C28.0247 23.8143 27.9247 23.9936 27.7547 24.0634C27.8547 24.1231 27.9347 24.2327 27.9447 24.3622C27.9747 24.5814 27.8147 24.7806 27.5947 24.8005H27.5847V24.8205C27.6147 25.0396 27.4547 25.2388 27.2347 25.2588C27.0047 25.2886 26.7747 25.2787 26.5547 25.2289C26.4947 25.3982 26.3247 25.5178 26.1347 25.4978C25.7147 25.458 25.3247 25.3086 24.9947 25.0496C21.4924 22.3422 21.0607 22.0084 20.6705 21.6316C20.6157 21.5786 20.5616 21.5248 20.5 21.4634C20 20.9653 19.5 19.9692 19.5 19.4711H18.5V18H13.5V19.4711H12.5C12.5 19.9692 12 20.9653 11.5 21.4634C11.4384 21.5247 11.3843 21.5787 11.3295 21.6316C10.9393 22.0084 10.5076 22.3422 7.00529 25.0496C6.67529 25.3086 6.28529 25.458 5.86529 25.4978C5.67529 25.5178 5.50529 25.3982 5.44529 25.2289C5.22529 25.2787 4.99529 25.2886 4.76529 25.2588C4.54529 25.2388 4.38529 25.0396 4.41529 24.8205V24.8005H4.40529C4.18529 24.7806 4.02529 24.5814 4.05529 24.3622C4.06529 24.2327 4.14529 24.1231 4.24529 24.0634C4.07529 23.9936 3.97529 23.8143 4.00529 23.6251C4.04529 23.4159 4.24529 23.2864 4.45529 23.3063C4.73529 23.3362 5.01529 23.2764 5.25529 23.137C5.30529 23.0174 5.36529 22.9078 5.44529 22.8082L5.27529 22.7783C5.02529 22.7385 4.86529 22.5094 4.90529 22.2603C4.94529 22.0113 5.17529 21.8519 5.42529 21.8918L6.33529 22.0412C6.62436 21.7712 6.96438 21.488 7.31683 21.1944C8.32994 20.3505 9.44582 19.4209 9.75 18.475C9.84241 18.1946 10 18 10 17.6475V17Z" fill="#C68D7B"/>
<path d="M21 7.66712C21 8.00404 20.9259 8.32749 20.7844 8.61725C20.7372 8.71159 20.7372 8.82615 20.7844 8.92049C20.9191 9.2035 21 9.52022 21 9.85714C21 11.0431 20.0431 12 18.8571 12H13.1429C11.9569 12 11 11.0431 11 9.85714C11 9.52022 11.0809 9.2035 11.2156 8.92049C11.2628 8.82615 11.2628 8.71159 11.2156 8.61725C11.0809 8.32749 11 8.01078 11 7.66712C11 7.21668 11.1341 6.80649 11.3623 6.45662L11.3638 6.45418C11.5929 6.10377 11.7142 5.69272 11.7142 5.27493V5.26819C11.7142 4.07419 12.6676 3.10219 13.8544 3.07215C13.8732 3.07167 13.8921 3.07143 13.911 3.07143C14.0323 3.07143 14.1468 3.01078 14.2142 2.91644C14.6118 2.36388 15.2654 2 15.9999 2C16.7344 2 17.3881 2.36388 17.7857 2.91644C17.8531 3.01752 17.9677 3.07143 18.0889 3.07143C19.3019 3.07143 20.2857 4.05526 20.2857 5.26819V5.27493C20.2857 5.69272 20.407 6.10377 20.6361 6.45418L20.6375 6.45626C20.711 6.56347 20.7712 6.67733 20.8247 6.79784H20.8212C20.936 7.06398 21 7.35595 21 7.66712Z" fill="#593B39"/>
<path d="M22.7499 21.5H15.9999V24.5H11.8294C11.4787 24.5 11.1669 24.6679 11.0597 25L10.0464 28.6812C9.84183 29.3359 10.3387 30 11.0402 30C11.3325 30 11.6151 29.8862 11.81 29.6774L13.0181 28.3966C13.213 28.1879 13.5053 28 13.7976 28H22.7499C24.5449 28 25.9999 26.5449 25.9999 24.75C25.9999 22.9551 24.5449 21.5 22.7499 21.5Z" fill="#A9715F"/>
<path d="M16 21.5H9.25C7.45507 21.5 6 22.9551 6 24.75C6 26.4606 7.32151 27.8625 8.99928 27.9905C8.9995 27.9937 8.99972 27.9968 8.99994 28H18.2023C18.4946 28 18.7869 28.1879 18.9817 28.3966L20.1899 29.6774C20.3848 29.8862 20.6673 30 20.9596 30C21.6611 30 22.1581 29.3359 21.9535 28.6812L20.9402 25C20.8397 24.6887 20.5594 24.5216 20.2358 24.502C20.2142 24.5007 20.1924 24.5 20.1705 24.5V24.5H16V21.5Z" fill="#BB806E"/>
<path d="M10 17C10 13.6863 12.6863 11 16 11C19.3137 11 22 13.6863 22 17V17.6475C22 18 22.1576 18.2197 22.25 18.5C22.5542 19.446 23.6701 20.3505 24.6832 21.1944C25.0356 21.488 25.3757 21.7712 25.6647 22.0412L26.5747 21.8918C26.8247 21.8519 27.0547 22.0113 27.0947 22.2603C27.1347 22.5094 26.9747 22.7385 26.7247 22.7783L26.5547 22.8082C26.6347 22.9078 26.6947 23.0174 26.7447 23.137C26.9847 23.2764 27.2647 23.3362 27.5447 23.3063C27.7547 23.2864 27.9547 23.4159 27.9947 23.6251C28.0247 23.8143 27.9247 23.9936 27.7547 24.0634C27.8547 24.1231 27.9347 24.2327 27.9447 24.3622C27.9747 24.5814 27.8147 24.7806 27.5947 24.8005H27.5847V24.8205C27.6147 25.0396 27.4547 25.2388 27.2347 25.2588C27.0047 25.2886 26.7747 25.2787 26.5547 25.2289C26.4947 25.3982 26.3247 25.5178 26.1347 25.4978C25.7147 25.458 25.3247 25.3086 24.9947 25.0496C21.4924 22.3422 21.0607 22.0084 20.6705 21.6316C20.6157 21.5786 20.5616 21.5248 20.5 21.4634C20 20.9653 19.5 19.9692 19.5 19.4711H18.5V18H13.5V19.4711H12.5C12.5 19.9692 12 20.9653 11.5 21.4634C11.4384 21.5247 11.3843 21.5787 11.3295 21.6316C10.9393 22.0084 10.5076 22.3422 7.00529 25.0496C6.67529 25.3086 6.28529 25.458 5.86529 25.4978C5.67529 25.5178 5.50529 25.3982 5.44529 25.2289C5.22529 25.2787 4.99529 25.2886 4.76529 25.2588C4.54529 25.2388 4.38529 25.0396 4.41529 24.8205V24.8005H4.40529C4.18529 24.7806 4.02529 24.5814 4.05529 24.3622C4.06529 24.2327 4.14529 24.1231 4.24529 24.0634C4.07529 23.9936 3.97529 23.8143 4.00529 23.6251C4.04529 23.4159 4.24529 23.2864 4.45529 23.3063C4.73529 23.3362 5.01529 23.2764 5.25529 23.137C5.30529 23.0174 5.36529 22.9078 5.44529 22.8082L5.27529 22.7783C5.02529 22.7385 4.86529 22.5094 4.90529 22.2603C4.94529 22.0113 5.17529 21.8519 5.42529 21.8918L6.33529 22.0412C6.62436 21.7712 6.96438 21.488 7.31683 21.1944C8.32994 20.3505 9.44582 19.446 9.75 18.5C9.84241 18.2197 10 18 10 17.6475V17Z" fill="#C68D7B"/>
<path d="M15.8477 15H16.1419C17.7181 15 19 13.7708 19 12.2594V11.796C18.0858 11.2821 17.0666 11 15.9948 11C14.9335 11 13.9142 11.2821 13.0001 11.7859V12.2695C12.9896 13.7809 14.2715 15 15.8477 15Z" fill="#B87A66"/>
<path d="M6.41769 22.9507C6.44494 22.9295 6.48421 22.9344 6.5054 22.9616C6.52659 22.9889 6.52168 23.0282 6.49443 23.0493L5.53867 23.7925C5.32002 23.9619 5.0605 24.0623 4.78669 24.0852C4.69346 24.0931 4.59856 24.0919 4.50304 24.0814L4.50152 24.0813C4.50081 24.0812 4.50009 24.0811 4.49938 24.081C4.42615 24.0738 4.35986 24.0895 4.28999 24.1236C4.20337 24.1746 4.14185 24.2642 4.13208 24.3702L4.13176 24.373C4.10902 24.5374 4.21743 24.6896 4.37691 24.7281C4.41043 24.623 4.48177 24.5363 4.5736 24.4813C4.66149 24.4269 4.76811 24.4006 4.87569 24.4107C5.21978 24.4484 5.55452 24.3543 5.82153 24.1474L7.05148 23.191C7.07873 23.1698 7.118 23.1747 7.13919 23.202C7.16015 23.229 7.15557 23.2677 7.12908 23.289C7.12603 23.2929 7.12249 23.2964 7.11845 23.2995L5.88845 24.256C5.59547 24.483 5.22918 24.586 4.85328 24.5449L4.85176 24.5447C4.77323 24.5341 4.69799 24.5519 4.63605 24.5895C4.5598 24.6383 4.50501 24.7154 4.4917 24.8072L4.48395 24.8608H4.47957C4.46917 25.0317 4.59867 25.1836 4.77566 25.1994L4.77806 25.1997C4.97855 25.2255 5.17874 25.2203 5.37164 25.1844C5.37619 25.2088 5.38374 25.2311 5.38974 25.2488L5.39087 25.2521L5.39885 25.2494C5.39162 25.2278 5.38599 25.2055 5.3821 25.1824L5.37164 25.1844C5.36935 25.1722 5.36782 25.1594 5.36761 25.1464L5.36785 25.1491L5.37769 25.1482L5.37728 25.1434H5.36758L5.36761 25.1464C5.34607 24.897 5.53001 24.6704 5.78386 24.6473C6.04211 24.6189 6.27137 24.5247 6.47254 24.3736C6.47996 24.368 6.48821 24.3643 6.49672 24.3625L7.71164 23.4178C7.73889 23.3966 7.77816 23.4015 7.79934 23.4287C7.82053 23.456 7.81562 23.4953 7.78837 23.5164L6.55837 24.4729L6.55755 24.4735C6.33888 24.6378 6.08833 24.7408 5.80681 24.7716L5.80559 24.7718C5.62068 24.7883 5.48536 24.9545 5.50224 25.1376C5.51887 25.318 5.68639 25.4529 5.8743 25.4361C5.95037 25.4289 6.02542 25.4178 6.09926 25.4028C6.1331 25.396 6.16607 25.4179 6.17292 25.4517C6.17977 25.4855 6.1579 25.5185 6.12407 25.5254C6.04586 25.5412 5.96639 25.553 5.88585 25.5606C5.68843 25.5782 5.50278 25.4713 5.42048 25.3023C5.20675 25.3451 4.98486 25.3522 4.76327 25.3238C4.52005 25.3014 4.33911 25.0911 4.35491 24.8513C4.13181 24.8013 3.97633 24.5898 4.00775 24.3573C4.01842 24.2453 4.07009 24.1473 4.14644 24.0758C4.01581 23.9828 3.93914 23.8285 3.95813 23.6579C3.98177 23.4054 4.21393 23.2235 4.46784 23.2572C4.81169 23.2946 5.1452 23.2004 5.41203 22.9937C5.43932 22.9726 5.47858 22.9775 5.49972 23.0048C5.52086 23.0321 5.51587 23.0714 5.48859 23.0925C5.19561 23.3195 4.8294 23.4225 4.4535 23.3813L4.45198 23.3811C4.26641 23.3562 4.09921 23.4893 4.08255 23.6701L4.08242 23.6713C4.06681 23.8098 4.13811 23.9348 4.25888 23.9987C4.33517 23.9617 4.42285 23.9455 4.51342 23.9568C4.51465 23.9569 4.51588 23.957 4.51712 23.9572C4.60449 23.9667 4.69121 23.9678 4.77633 23.9607C5.02626 23.9397 5.26248 23.8481 5.46157 23.6938C5.46305 23.6927 5.46456 23.6916 5.4661 23.6906L6.41769 22.9507Z" fill="#A9715F"/>
<path fill-rule="evenodd" clip-rule="evenodd" d="M25.5979 22.9507C25.5707 22.9295 25.5314 22.9344 25.5102 22.9616C25.489 22.9889 25.494 23.0282 25.5212 23.0493L26.477 23.7925C26.6899 23.9575 26.9416 24.0571 27.2075 24.0833C27.3076 24.0932 27.4098 24.0927 27.5126 24.0815L27.5141 24.0813L27.5163 24.081C27.5895 24.0738 27.6558 24.0895 27.7256 24.1236C27.8123 24.1746 27.8738 24.2642 27.8836 24.3702L27.8839 24.373C27.9066 24.5375 27.7982 24.6896 27.6387 24.7281C27.6052 24.6231 27.5339 24.5363 27.4421 24.4813C27.3542 24.4269 27.2475 24.4006 27.1399 24.4107C26.7959 24.4484 26.4611 24.3543 26.1941 24.1474L24.9642 23.191C24.9369 23.1698 24.8976 23.1747 24.8764 23.202C24.8555 23.229 24.8601 23.2677 24.8866 23.289C24.8896 23.2929 24.8932 23.2964 24.8972 23.2995L26.1272 24.256C26.4202 24.483 26.7865 24.586 27.1624 24.5449L27.1639 24.5447C27.2424 24.5341 27.3176 24.5519 27.3796 24.5895C27.4558 24.6383 27.5106 24.7154 27.5239 24.8072L27.5317 24.8608H27.5361C27.5465 25.0317 27.417 25.1836 27.24 25.1994L27.2376 25.1997C27.0371 25.2255 26.8369 25.2203 26.644 25.1844C26.6463 25.1722 26.6478 25.1594 26.648 25.1464C26.6696 24.897 26.4856 24.6704 26.2318 24.6473C25.9735 24.6189 25.7443 24.5247 25.5431 24.3736C25.5357 24.368 25.5274 24.3643 25.5189 24.3625L24.304 23.4178C24.2767 23.3966 24.2375 23.4015 24.2163 23.4287C24.1951 23.456 24.2 23.4953 24.2273 23.5164L25.4573 24.4729L25.4581 24.4735C25.6768 24.6378 25.9273 24.7408 26.2088 24.7716L26.21 24.7718C26.395 24.7883 26.5303 24.9545 26.5134 25.1376C26.4968 25.318 26.3292 25.4529 26.1413 25.4361C26.0653 25.4289 25.9902 25.4178 25.9164 25.4028C25.8825 25.396 25.8496 25.4179 25.8427 25.4517C25.8359 25.4855 25.8577 25.5185 25.8916 25.5254C25.9698 25.5412 26.0492 25.553 26.1298 25.5606C26.3272 25.5782 26.5128 25.4713 26.5951 25.3023C26.8089 25.3451 27.0308 25.3522 27.2524 25.3238C27.4956 25.3014 27.6765 25.0911 27.6607 24.8513C27.8838 24.8013 28.0393 24.5898 28.0079 24.3573C27.9972 24.2453 27.9455 24.1473 27.8692 24.0758C27.9998 23.9828 28.0765 23.8285 28.0575 23.6579C28.0339 23.4054 27.8017 23.2235 27.5478 23.2572C27.2039 23.2946 26.8704 23.2004 26.6036 22.9937C26.5763 22.9726 26.5371 22.9775 26.5159 23.0048C26.4948 23.0321 26.4998 23.0714 26.5271 23.0925C26.82 23.3195 27.1862 23.4225 27.5621 23.3813L27.5637 23.3811C27.7492 23.3562 27.9164 23.4893 27.9331 23.6701L27.9332 23.6713C27.9488 23.8098 27.8775 23.9348 27.7567 23.9987C27.6805 23.9617 27.5928 23.9455 27.5022 23.9568L27.4985 23.9572C27.4111 23.9667 27.3244 23.9678 27.2393 23.9607C26.9894 23.9397 26.7532 23.8481 26.5541 23.6938L26.5495 23.6906L25.5979 22.9507ZM26.648 25.1464L26.6478 25.1491L26.6379 25.1482L26.6384 25.1434H26.6481L26.648 25.1464ZM26.644 25.1844C26.6394 25.2088 26.6319 25.2311 26.6259 25.2488L26.6248 25.2521L26.6168 25.2494C26.624 25.2278 26.6296 25.2055 26.6335 25.1824L26.644 25.1844Z" fill="#A9715F"/>
<path d="M20 21.5H12L13.63 24.5H18.3138L20 21.5Z" fill="#9B9B9B"/>
<path d="M20 21.5H12V12.5277C12.1934 12.3308 12.5364 12.0576 13 11.7967H18.9897C19.352 12.0053 19.6905 12.2507 20 12.5277V21.5Z" fill="#00A6ED"/>
<path d="M15.8477 15H16.1419C17.7181 15 19 13.7708 19 12.2594V11.796C18.0858 11.2821 17.0666 11 15.9948 11C14.9335 11 13.9142 11.2821 13.0001 11.7859V12.2695C12.9896 13.7809 14.2715 15 15.8477 15Z" fill="#BB806E"/>
<path d="M14 7.79004C14 8.34232 13.5523 8.79004 13 8.79004C12.4477 8.79004 12 8.34232 12 7.79004C12 7.23775 12.4477 6.79004 13 6.79004C13.5523 6.79004 14 7.23775 14 7.79004Z" fill="#BB806E"/>
<path d="M20 7.79004C20 8.34232 19.5523 8.79004 19 8.79004C18.4477 8.79004 18 8.34232 18 7.79004C18 7.23775 18.4477 6.79004 19 6.79004C19.5523 6.79004 20 7.23775 20 7.79004Z" fill="#BB806E"/>
<path d="M12.6129 6.92651H12.6211L12.6143 6.74987L12.6074 6.54606C12.6211 5.91423 12.9898 5.66966 13.1469 5.58813C13.1571 5.58474 13.169 5.57964 13.181 5.57454C13.1929 5.56945 13.2049 5.56435 13.2151 5.56096C13.5702 5.39791 13.857 5.11257 14.0072 4.73891L14.0618 4.60983C14.1165 4.48075 14.2872 4.46037 14.3691 4.57586C14.8471 5.27562 15.646 5.69004 16.4927 5.69004H18.6368C18.7567 5.69004 19.3574 5.74822 19.3931 6.5771L19.3141 8.52373C19.232 10.3898 17.7747 11.6429 15.9959 11.6429C14.2171 11.6429 12.7599 10.3898 12.6778 8.52373L12.6129 6.92651Z" fill="#C68D7B"/>
<path d="M15.7976 7.66798L15.5137 8.7771C15.4535 9.00729 15.5997 9.23749 15.789 9.23749H16.2105C16.4083 9.23749 16.5459 9.00729 16.4857 8.7771L16.2019 7.66798C16.1417 7.42732 15.8578 7.42732 15.7976 7.66798Z" fill="#AB6A55"/>
<path d="M16 9.99196C15.6817 9.99196 15.3915 9.90901 15.1387 9.76385C15.0545 9.71201 14.9609 9.82606 15.017 9.90901C15.223 10.2615 15.5881 10.5 16 10.5C16.4119 10.5 16.777 10.2615 16.983 9.90901C17.0391 9.8157 16.9455 9.71201 16.8613 9.76385C16.6179 9.90901 16.3183 9.99196 16 9.99196Z" fill="#990838"/>
<path d="M18.3113 6.47399C18.3701 6.39809 18.3561 6.2888 18.2802 6.23L18.2791 6.22917L18.2773 6.2278L18.2719 6.22377C18.2675 6.22054 18.2615 6.21623 18.2539 6.21102C18.2388 6.20061 18.2175 6.18658 18.1904 6.17037C18.1362 6.138 18.0584 6.09663 17.9603 6.0581C17.7644 5.98109 17.4845 5.91433 17.1518 5.95699C17.0565 5.9692 16.9892 6.0563 17.0014 6.15154C17.0136 6.24677 17.1007 6.31408 17.196 6.30187C17.4575 6.26834 17.6777 6.32063 17.8332 6.38171C17.9108 6.41223 17.9716 6.44466 18.012 6.46884C18.0322 6.48091 18.0472 6.49083 18.0566 6.49731L18.0664 6.50425L18.068 6.50543C18.1439 6.56368 18.2527 6.54969 18.3113 6.47399Z" fill="#593B39"/>
<path d="M13.8797 6.57436L13.8811 6.57337L13.8917 6.56592C13.9018 6.559 13.9179 6.54845 13.9395 6.53566C13.9829 6.51002 14.0478 6.47568 14.1308 6.44337C14.2969 6.37871 14.5323 6.3233 14.8121 6.35883C14.9073 6.37092 14.9943 6.30351 15.0064 6.20826C15.0185 6.11301 14.9511 6.02599 14.8559 6.0139C14.5056 5.96942 14.211 6.03901 14.0046 6.11935C13.9014 6.15955 13.8194 6.20271 13.7624 6.23644C13.7339 6.25334 13.7115 6.26794 13.6956 6.27876C13.6877 6.28417 13.6814 6.28864 13.6768 6.29198L13.6712 6.29612L13.6693 6.29752L13.6684 6.29826C13.5922 6.35671 13.5776 6.46604 13.636 6.5422C13.6945 6.61834 13.8035 6.63272 13.8797 6.57436Z" fill="#593B39"/>
<path d="M14.1208 7.41093C14.0716 7.34427 13.9777 7.3301 13.911 7.37928C13.8444 7.42847 13.8302 7.52238 13.8794 7.58904C14.0467 7.81584 14.3277 7.94999 14.6251 7.94999C14.9225 7.94999 15.2035 7.81584 15.3708 7.58904C15.42 7.52238 15.4058 7.42847 15.3392 7.37928C15.2725 7.3301 15.1786 7.34427 15.1294 7.41093C15.0233 7.55472 14.8355 7.64999 14.6251 7.64999C14.4147 7.64999 14.2269 7.55472 14.1208 7.41093Z" fill="#593B39"/>
<path d="M16.8708 7.41093C16.8216 7.34427 16.7277 7.3301 16.661 7.37928C16.5944 7.42847 16.5802 7.52238 16.6294 7.58904C16.7967 7.81584 17.0777 7.94999 17.3751 7.94999C17.6725 7.94999 17.9535 7.81584 18.1208 7.58904C18.17 7.52238 18.1558 7.42847 18.0892 7.37928C18.0225 7.3301 17.9286 7.34427 17.8794 7.41093C17.7733 7.55472 17.5855 7.64999 17.3751 7.64999C17.1647 7.64999 16.9769 7.55472 16.8708 7.41093Z" fill="#593B39"/>
</svg>

<svg xmlns="http://www.w3.org/2000/svg" width="32" height="32" fill="none"><path fill="#C68D7B" d="M10 17a6 6 0 0 1 12 0v.648c0 .352.158.547.25.827.304.946 1.42 1.875 2.433 2.72.353.293.693.576.982.846l.91-.15c.25-.04.48.12.52.37.04.248-.12.477-.37.517l-.17.03c.08.1.14.21.19.329.24.14.52.2.8.17.21-.02.41.109.45.318.03.19-.07.369-.24.438.1.06.18.17.19.3.03.218-.13.418-.35.438h-.01v.02c.03.219-.13.418-.35.438-.23.03-.46.02-.68-.03a.404.404 0 0 1-.42.269c-.42-.04-.81-.19-1.14-.448-3.503-2.708-3.934-3.042-4.325-3.418a15.859 15.859 0 0 1-.17-.169c-.5-.498-1-1.494-1-1.992h-1V18h-5v1.471h-1c0 .498-.5 1.494-1 1.992l-.17.169c-.39.376-.822.71-4.325 3.418-.33.259-.72.408-1.14.448-.19.02-.36-.1-.42-.27-.22.05-.45.06-.68.03a.388.388 0 0 1-.35-.438v-.02h-.01a.388.388 0 0 1-.35-.438.39.39 0 0 1 .19-.299.401.401 0 0 1-.24-.438c.04-.21.24-.339.45-.319.28.03.56-.03.8-.169.05-.12.11-.23.19-.329l-.17-.03a.445.445 0 0 1-.37-.518.446.446 0 0 1 .52-.368l.91.15c.29-.27.63-.554.982-.848 1.013-.843 2.129-1.773 2.433-2.719.092-.28.25-.475.25-.828V17Z"/><path fill="#593B39" d="M21 7.667c0 .337-.074.66-.216.95a.342.342 0 0 0 0 .303A2.14 2.14 0 0 1 18.857 12h-5.714a2.14 2.14 0 0 1-1.927-3.08.342.342 0 0 0 0-.303 2.196 2.196 0 0 1 .147-2.16v-.003c.23-.35.351-.761.351-1.18v-.006a2.197 2.197 0 0 1 2.197-2.197c.121 0 .236-.06.303-.155a2.201 2.201 0 0 1 3.572 0 .36.36 0 0 0 .303.155c1.213 0 2.197.984 2.197 2.197v.007c0 .418.121.829.35 1.18l.002.001c.073.107.133.221.187.342h-.004c.115.266.179.558.179.87Z"/><path fill="#A9715F" d="M22.75 21.5H16v3h-4.17c-.351 0-.663.168-.77.5l-1.014 3.681c-.204.655.293 1.319.994 1.319.293 0 .575-.114.77-.323l1.208-1.28c.195-.21.487-.397.78-.397h8.952a3.25 3.25 0 1 0 0-6.5Z"/><path fill="#BB806E" d="M16 21.5H9.25A3.25 3.25 0 0 0 9 27.99V28h9.202c.293 0 .585.188.78.397l1.208 1.28c.195.21.477.323.77.323.701 0 1.198-.664.993-1.319L20.94 25c-.1-.311-.38-.478-.704-.498a1.087 1.087 0 0 0-.066-.002H16v-3Z"/><path fill="#C68D7B" d="M10 17a6 6 0 0 1 12 0v.648c0 .352.158.572.25.852.304.946 1.42 1.85 2.433 2.694.353.294.693.577.982.847l.91-.15c.25-.04.48.12.52.37.04.248-.12.477-.37.517l-.17.03c.08.1.14.21.19.329.24.14.52.2.8.17.21-.02.41.109.45.318.03.19-.07.369-.24.438.1.06.18.17.19.3.03.218-.13.418-.35.438h-.01v.02c.03.219-.13.418-.35.438-.23.03-.46.02-.68-.03a.404.404 0 0 1-.42.269c-.42-.04-.81-.19-1.14-.448-3.503-2.708-3.934-3.042-4.325-3.418a15.859 15.859 0 0 1-.17-.169c-.5-.498-1-1.494-1-1.992h-1V18h-5v1.471h-1c0 .498-.5 1.494-1 1.992l-.17.169c-.39.376-.822.71-4.325 3.418-.33.259-.72.408-1.14.448-.19.02-.36-.1-.42-.27-.22.05-.45.06-.68.03a.388.388 0 0 1-.35-.438v-.02h-.01a.388.388 0 0 1-.35-.438.39.39 0 0 1 .19-.299.401.401 0 0 1-.24-.438c.04-.21.24-.339.45-.319.28.03.56-.03.8-.169.05-.12.11-.23.19-.329l-.17-.03a.445.445 0 0 1-.37-.518.446.446 0 0 1 .52-.368l.91.15c.29-.27.63-.554.982-.848 1.013-.843 2.129-1.748 2.433-2.694.092-.28.25-.5.25-.852V17Z"/><path fill="#B87A66" d="M15.848 15h.294C17.718 15 19 13.77 19 12.26v-.464A6.098 6.098 0 0 0 15.995 11c-1.061 0-2.08.282-2.995.786v.484c-.01 1.51 1.271 2.73 2.848 2.73Z"/><path fill="#A9715F" d="M6.418 22.95a.063.063 0 0 1 .076.1l-.955.742a1.416 1.416 0 0 1-1.036.29h-.001l-.003-.001a.378.378 0 0 0-.209.043.32.32 0 0 0-.158.246v.003a.322.322 0 0 0 .245.355.447.447 0 0 1 .197-.247.49.49 0 0 1 .302-.07c.344.037.679-.057.946-.264l1.23-.956a.062.062 0 0 1 .077.098.06.06 0 0 1-.01.01l-1.23.957c-.294.227-.66.33-1.036.289h-.001a.33.33 0 0 0-.216.044.313.313 0 0 0-.144.218l-.008.054H4.48c-.01.17.119.323.296.338h.002c.2.026.4.021.594-.015a.463.463 0 0 0 .018.065v.003l.009-.003a.442.442 0 0 1-.017-.067l-.01.002a.226.226 0 0 1-.004-.038v.003h.01v-.006h-.01v.003a.462.462 0 0 1 .416-.499 1.38 1.38 0 0 0 .689-.273.061.061 0 0 1 .024-.011l1.215-.945a.063.063 0 1 1 .076.098l-1.23.957c-.22.165-.47.268-.751.299h-.001a.337.337 0 0 0-.304.366.34.34 0 0 0 .372.298c.076-.007.151-.018.225-.033a.063.063 0 0 1 .025.122 2.288 2.288 0 0 1-.238.036.472.472 0 0 1-.466-.259c-.213.043-.435.05-.657.022a.448.448 0 0 1-.408-.473.447.447 0 0 1-.347-.494.442.442 0 0 1 .138-.281.448.448 0 0 1-.188-.418.45.45 0 0 1 .51-.4 1.3 1.3 0 0 0 .944-.264.063.063 0 0 1 .077.099c-.293.227-.66.33-1.035.288h-.002a.325.325 0 0 0-.37.29.326.326 0 0 0 .177.328.453.453 0 0 1 .254-.042h.004a1.29 1.29 0 0 0 .949-.267l.952-.74Z"/><path fill="#A9715F" fill-rule="evenodd" d="M25.598 22.95a.063.063 0 1 0-.077.1l.956.742a1.415 1.415 0 0 0 1.036.29h.001l.002-.001a.377.377 0 0 1 .21.043.32.32 0 0 1 .158.246v.003a.322.322 0 0 1-.245.355.447.447 0 0 0-.197-.247.49.49 0 0 0-.302-.07 1.302 1.302 0 0 1-.946-.264l-1.23-.956a.063.063 0 0 0-.077.098.059.059 0 0 0 .01.01l1.23.957c.293.227.66.33 1.035.289h.002a.33.33 0 0 1 .216.044.313.313 0 0 1 .144.218l.008.054h.004c.01.17-.119.323-.296.338h-.002c-.2.026-.401.021-.594-.015a.462.462 0 0 0-.412-.537 1.38 1.38 0 0 1-.689-.273.061.061 0 0 0-.024-.011l-1.215-.945a.063.063 0 1 0-.077.098l1.23.957h.001c.219.165.47.268.75.299h.002c.185.016.32.183.303.366a.34.34 0 0 1-.372.298 2.145 2.145 0 0 1-.225-.033.063.063 0 0 0-.024.122c.078.016.157.028.238.036a.472.472 0 0 0 .465-.259c.214.043.436.05.657.022a.448.448 0 0 0 .409-.473.447.447 0 0 0 .347-.494.442.442 0 0 0-.139-.281.448.448 0 0 0 .189-.418.45.45 0 0 0-.51-.4 1.3 1.3 0 0 1-.944-.264.063.063 0 1 0-.077.099c.293.227.66.33 1.035.288h.002a.325.325 0 0 1 .37.29.326.326 0 0 1-.177.328.453.453 0 0 0-.255-.042H27.5a1.29 1.29 0 0 1-.944-.263l-.006-.003-.951-.74Zm1.05 2.196v.003h-.01v-.006h.01v.003Zm-.004.038a.47.47 0 0 1-.018.065l-.001.003-.008-.003a.446.446 0 0 0 .017-.067l.01.002Z" clip-rule="evenodd"/><path fill="#9B9B9B" d="M20 21.5h-8l1.63 3h4.684l1.686-3Z"/><path fill="#00A6ED" d="M20 21.5h-8v-8.972c.193-.197.536-.47 1-.731h5.99c.362.208.7.454 1.01.73V21.5Z"/><path fill="#BB806E" d="M15.848 15h.294C17.718 15 19 13.77 19 12.26v-.464A6.098 6.098 0 0 0 15.995 11c-1.061 0-2.08.282-2.995.786v.484c-.01 1.51 1.271 2.73 2.848 2.73ZM14 7.79a1 1 0 1 1-2 0 1 1 0 0 1 2 0ZM20 7.79a1 1 0 1 1-2 0 1 1 0 0 1 2 0Z"/><path fill="#C68D7B" d="M12.613 6.927h.008l-.007-.177-.007-.204c.014-.632.383-.876.54-.958l.034-.013a1.534 1.534 0 0 0 .826-.836l.055-.13a.176.176 0 0 1 .307-.033 2.572 2.572 0 0 0 2.124 1.114h2.144c.12 0 .72.058.756.887l-.079 1.947c-.082 1.866-1.54 3.119-3.318 3.119-1.779 0-3.236-1.253-3.318-3.12l-.065-1.596Z"/><path fill="#AB6A55" d="m15.798 7.668-.284 1.11c-.06.23.086.46.275.46h.421c.198 0 .336-.23.276-.46l-.284-1.11c-.06-.24-.344-.24-.404 0Z"/><path fill="#990838" d="M16 9.992c-.318 0-.608-.083-.861-.228-.084-.052-.178.062-.122.145.206.352.571.591.983.591.412 0 .777-.239.983-.591.056-.093-.038-.197-.122-.145a1.688 1.688 0 0 1-.861.228Z"/><path fill="#593B39" d="M18.311 6.474a.174.174 0 0 0-.03-.244h-.002l-.002-.002-.005-.004a.682.682 0 0 0-.082-.054 1.636 1.636 0 0 0-1.039-.213.174.174 0 1 0 .045.345 1.29 1.29 0 0 1 .86.195l.01.007.002.001a.174.174 0 0 0 .243-.031ZM13.88 6.574h.001l.01-.008a1.32 1.32 0 0 1 .24-.123 1.39 1.39 0 0 1 .681-.084.174.174 0 0 0 .044-.345 1.738 1.738 0 0 0-1.18.278l-.005.004-.002.002a.174.174 0 0 0 .21.276ZM14.12 7.41a.15.15 0 0 0-.24.179c.167.227.448.361.745.361a.926.926 0 0 0 .746-.361.15.15 0 0 0-.242-.178.626.626 0 0 1-.504.239.626.626 0 0 1-.504-.24ZM16.87 7.41a.15.15 0 0 0-.24.179c.167.227.448.361.745.361a.926.926 0 0 0 .746-.361.15.15 0 0 0-.242-.178.626.626 0 0 1-.504.239.626.626 0 0 1-.504-.24Z"/></svg>
